actions/22/filename-group-tracks.svg

<!DOCTYPE svg>
<svg viewBox="0 0 22 22" version="1.1" xmlns="http://www.w3.org/2000/svg">
    <defs>
<style type="text/css" id="current-color-scheme">.ColorScheme-Text {color:#fcfcfc;}</style>
    </defs>
    <path class="ColorScheme-Text" style="fill:currentColor; fill-opacity:1; stroke:none" d="m 5,3 c 0,0 -2,0 -2,2 0,2 0,8 0,10 0,2 2,2 2,2 h 2 c 0,0 0,2 2,2 2,0 3,0 3,0 v -1 c 0,0 -2,0 -3,0 C 8,18 8,17 8,17 8,17 8,9 8,8 8,7 9,7 9,7 h 3 v 4 h 4 v 1 h 1 V 10 L 13,6 H 12 L 9,3 Z M 4,5 C 4,4 5,4 5,4 H 8 V 6 C 8,6 7,6 7,7 7,8 7,16 7,16 H 5 C 5,16 4,16 4,15 4,14 4,6 4,5 Z m 10,8 v 1 h -1 v 1 h 1 v 2 h -1 v 1 h 1 v 1 h 1 v -1 h 2 v 1 h 1 v -1 h 1 v -1 h -1 v -2 h 1 v -1 h -1 v -1 h -1 v 1 h -2 v -1 z m 1,2 h 2 v 2 h -2 z"/>
</svg>

<!DOCTYPE svg>
<svg viewBox="0 0 22 22" version="1.1" xmlns="http://www.w3.org/2000/svg">
    <defs>
        <style type="text/css" id="current-color-scheme">
            .ColorScheme-Text {
                color:#eff0f1;
            }
        </style>
    </defs>
    <path class="ColorScheme-Text" style="fill:currentColor; fill-opacity:1; stroke:none" d="M 3 3 L 3 17 L 7 17 L 7 19 L 12 19 L 12 18 L 8 18 L 8 7 L 12 7 L 12 11 L 16 11 L 16 12 L 17 12 L 17 10 L 13 6 L 12 6 L 9 3 L 3 3 Z M 4 4 L 8 4 L 8 6 L 7 6 L 7 16 L 4 16 L 4 4 Z M 14 13 L 14 14 L 13 14 L 13 15 L 14 15 L 14 17 L 13 17 L 13 18 L 14 18 L 14 19 L 15 19 L 15 18 L 17 18 L 17 19 L 18 19 L 18 18 L 19 18 L 19 17 L 18 17 L 18 15 L 19 15 L 19 14 L 18 14 L 18 13 L 17 13 L 17 14 L 15 14 L 15 13 L 14 13 Z M 15 15 L 17 15 L 17 17 L 15 17 L 15 15 Z"/>
</svg>
